X: 1346
T: Clem O'Neale Schottische
B: australian traditional tunes wiki
M:4/4
L:1/8
R: Schottische
Q: 1/4=100
K:G
V:1 
|:D2|"G"G>G G>B d>B G>B|"C"c>B c<e "D"d4|"G"G2 G>B d>B G>B|"A"A>g f>e "D"d>c B>A|
"G"G2 G>B d>B GB|"C"c>B c<e "G"d4|"C"(3efe f>e "D"d>c B>A|"G"G2B2G2 e>f||
"G"g>g f>d "C"(3efe "G"d>B|"D"c>B c<d c>BA2|"D"f2f>e d2c2|"G"B<d G>B"D"d4|
"G"g2f>d"C"e2 "G"d>B|"D"c>B c>d e<c A2|d2f>e d>c B>A|"G"G2B2G2z2:|
% abcbook-tune_id 6342d53a7df428e12758c6a1


% abcbook-boost 0
% abcbook-tablature 
% abcbook-transpose 
% abcbook-lastupdated 1665324360416
% abcbook-soundfonts 
% abcbook-repeats 1
% NFF Book 2008

